src/images/service_icon.svg

<svg width="25" height="25" viewBox="0 0 25 25" fill="none" xmlns="http://www.w3.org/2000/svg">
<g clip-path="url(#clip0_20_655)">
<path d="M24.7853 1.25045L23.7495 0.214663C23.5336 -0.00135204 23.2064 -0.0605316 22.9287 0.0654447L17.3655 2.52135C17.1465 2.62096 16.9907 2.8213 16.9478 3.05743C16.9052 3.2942 16.9806 3.53638 17.1505 3.70636L21.2936 7.84946C21.4636 8.01943 21.7058 8.09477 21.9426 8.05224C22.1787 8.00933 22.379 7.85351 22.4787 7.63452L24.9345 2.07125C25.0605 1.79357 25.0013 1.46637 24.7853 1.25045Z" fill="#B1B1B1"/>
<path d="M4.73142 16.1255L0.642562 20.2143C-0.214223 21.0711 -0.214223 22.4649 0.642562 23.3217L1.6783 24.3574C2.53509 25.2142 3.92888 25.2142 4.78562 24.3574L8.87448 20.2685L4.73142 16.1255ZM4.27493 21.7711C3.98865 22.0574 3.52532 22.0574 3.23909 21.7711C2.95291 21.4848 2.95291 21.0215 3.23909 20.7353L5.25642 18.718C5.5427 18.4317 6.00598 18.4317 6.29216 18.718C6.57844 19.0043 6.57844 19.4675 6.29216 19.7538L4.27493 21.7711Z" fill="#B1B1B1"/>
<path d="M11.9818 17.1612L7.83874 13.0181C7.2677 12.447 6.33821 12.447 5.76721 13.0181C5.19617 13.5891 5.19617 14.5186 5.76721 15.0896L9.91032 19.2327C10.4813 19.8038 11.4108 19.8038 11.9818 19.2327C12.5529 18.6618 12.5529 17.7322 11.9818 17.1612Z" fill="#B1B1B1"/>
<path d="M19.2222 7.84941L17.1506 5.77783L11.464 11.4644C10.8919 10.8924 9.96454 10.8924 9.39242 11.4644L8.8745 11.9824L13.0176 16.1255L13.5355 15.6075C14.1076 15.0354 14.1076 14.1081 13.5355 13.536L19.2222 7.84941Z" fill="#B1B1B1"/>
<path d="M23.7147 17.4979C22.5257 16.3089 21.0959 16.0532 19.4554 16.3464L16.1256 13.017L15.3305 13.8121C15.5923 14.796 15.3377 15.8762 14.5709 16.6431L14.054 17.1599L16.3456 19.4513C16.1145 20.7442 16.1362 21.8409 16.9392 23.0303C17.8659 24.4034 19.4877 25.1839 21.1868 24.95C21.4677 24.9114 21.7023 24.7166 21.7926 24.4478C21.8829 24.1791 21.8133 23.8823 21.6128 23.6818L20.6056 22.6763V20.605H22.679L23.6807 21.6067C23.8816 21.8076 24.1791 21.8767 24.4481 21.7857C24.7171 21.6947 24.9113 21.459 24.9491 21.1774C25.128 19.8452 24.6921 18.4749 23.7147 17.4979Z" fill="#B1B1B1"/>
<path d="M8.64425 5.53236C8.93492 3.90898 8.69957 2.48085 7.49273 1.27314C6.67159 0.45205 5.57296 0 4.39923 0C4.20163 0 4.00612 0.0128906 3.81315 0.0384277C3.53136 0.0758299 3.29548 0.270263 3.20436 0.53955C3.11325 0.808739 3.18283 1.10639 3.38381 1.30737L4.39533 2.30883V4.39447H2.31364L1.30964 3.37641C1.1091 3.17587 0.812082 3.10649 0.543235 3.19697C0.274485 3.28745 0.0801008 3.52231 0.0414778 3.80331C-0.181666 5.42816 0.522385 7.07889 1.95886 8.04862C3.1528 8.85301 4.25602 8.87293 5.53932 8.64159L7.84015 10.9462L8.35719 10.4291C9.12408 9.66224 10.2042 9.40779 11.1881 9.66951L11.9829 8.87469L8.64425 5.53236Z" fill="#B1B1B1"/>
</g>
<defs>
<clipPath id="clip0_20_655">
<rect width="25" height="25" fill="white"/>
</clipPath>
</defs>
</svg>

<svg xmlns="http://www.w3.org/2000/svg" width="25" height="25" fill="none"><g fill="#B1B1B1" clip-path="url(#a)"><path d="M24.785 1.25 23.75.215a.733.733 0 0 0-.821-.15l-5.563 2.456a.733.733 0 0 0-.215 1.185l4.143 4.143a.734.734 0 0 0 1.185-.214l2.456-5.564a.733.733 0 0 0-.15-.82ZM4.731 16.125l-4.088 4.09a2.2 2.2 0 0 0 0 3.107l1.035 1.035a2.2 2.2 0 0 0 3.108 0l4.088-4.088-4.143-4.143Zm-.456 5.646a.732.732 0 1 1-1.036-1.036l2.017-2.017a.732.732 0 1 1 1.036 1.036L4.275 21.77ZM11.982 17.161l-4.143-4.143a1.466 1.466 0 0 0-2.072 0 1.467 1.467 0 0 0 0 2.072l4.143 4.143c.571.57 1.5.57 2.072 0 .57-.571.57-1.5 0-2.072ZM19.222 7.85l-2.071-2.072-5.687 5.686a1.465 1.465 0 0 0-2.072 0l-.518.518 4.144 4.143.518-.518c.572-.572.572-1.499 0-2.071l5.686-5.687ZM23.715 17.498c-1.19-1.19-2.62-1.445-4.26-1.152l-3.33-3.329-.794.795a2.925 2.925 0 0 1-.76 2.831l-.517.517 2.292 2.291c-.232 1.293-.21 2.39.593 3.58.927 1.372 2.549 2.153 4.248 1.919a.747.747 0 0 0 .426-1.268l-1.007-1.006v-2.071h2.073l1.002 1.002a.747.747 0 0 0 1.268-.43 4.379 4.379 0 0 0-1.234-3.68ZM8.644 5.532c.29-1.623.056-3.051-1.151-4.259A4.342 4.342 0 0 0 4.399 0c-.197 0-.393.013-.586.038a.747.747 0 0 0-.43 1.27l1.012 1v2.086H2.314L1.31 3.376a.747.747 0 0 0-1.269.427A4.392 4.392 0 0 0 1.96 8.05c1.194.804 2.297.824 3.58.593l2.301 2.304.517-.517a2.924 2.924 0 0 1 2.831-.76l.795-.794-3.339-3.343Z"/></g><defs><clipPath id="a"><path fill="#fff" d="M0 0h25v25H0z"/></clipPath></defs></svg>
